svg/bus_double_decker.svg

<svg xmlns="http://www.w3.org/2000/svg" viewBox="0 0 24 24"><path d="M3 4c-1.11 0-2 .89-2 2v11h2a3 3 0 0 0 3 3 3 3 0 0 0 3-3h6a3 3 0 0 0 3 3 3 3 0 0 0 3-3h2v-3c0-1.11-.89-2-2-2h-2V9.5h4V6c0-1.11-.89-2-2-2zm-.5 1.5h4V8h-4zm5.5 0h4V8H8zm5.5 0h4V8h-4zm5.5 0h2.5V8H19zm-5.5 4h4V12h-4zm-11 0h4V12h-4zm5.5 0h4V12H8zm-2 6A1.5 1.5 0 0 1 7.5 17 1.5 1.5 0 0 1 6 18.5 1.5 1.5 0 0 1 4.5 17 1.5 1.5 0 0 1 6 15.5m12 0a1.5 1.5 0 0 1 1.5 1.5 1.5 1.5 0 0 1-1.5 1.5 1.5 1.5 0 0 1-1.5-1.5 1.5 1.5 0 0 1 1.5-1.5"/></svg>

<?xml version="1.0" encoding="UTF-8"?><!DOCTYPE svg PUBLIC "-//W3C//DTD SVG 1.1//EN" "http://www.w3.org/Graphics/SVG/1.1/DTD/svg11.dtd"><svg xmlns="http://www.w3.org/2000/svg" xmlns:xlink="http://www.w3.org/1999/xlink" version="1.1" id="mdi-bus-double-decker" width="24" height="24" viewBox="0 0 24 24"><path d="M3,4C1.89,4 1,4.89 1,6V17H3A3,3 0 0,0 6,20A3,3 0 0,0 9,17H15A3,3 0 0,0 18,20A3,3 0 0,0 21,17H23V14C23,12.89 22.11,12 21,12H19V9.5H23V6C23,4.89 22.11,4 21,4H3M2.5,5.5H6.5V8H2.5V5.5M8,5.5H12V8H8V5.5M13.5,5.5H17.5V8H13.5V5.5M19,5.5H21.5V8H19V5.5M13.5,9.5H17.5V12H13.5V9.5M2.5,9.5H6.5V12H2.5V9.5M8,9.5H12V12H8V9.5M6,15.5A1.5,1.5 0 0,1 7.5,17A1.5,1.5 0 0,1 6,18.5A1.5,1.5 0 0,1 4.5,17A1.5,1.5 0 0,1 6,15.5M18,15.5A1.5,1.5 0 0,1 19.5,17A1.5,1.5 0 0,1 18,18.5A1.5,1.5 0 0,1 16.5,17A1.5,1.5 0 0,1 18,15.5Z" /></svg>
